static/img/logos/launchdarkly.svg

<svg fill="none" height="32" viewBox="0 0 32 32" width="32" xmlns="http://www.w3.org/2000/svg"><path d="m12.2104 28c-.0974-.0023-.1925-.0305-.2758-.0816-.0832-.0511-.1517-.1234-.1985-.2097-.0794-.1852-.0794-.3714.0526-.5306l5.618-7.77-9.83792 4.0312c-.07937.027-.13197.053-.21035.053-.23814 0-.44848-.1592-.50106-.3714-.07938-.2122.02578-.4505.21034-.5836l8.65119-5.1183-15.217723-.8749c-.316519-.0271-.50107735-.2653-.50107735-.5306-.0026719-.1372.04847715-.2699.14231735-.3693.09384-.0994.222782-.1573.35876-.1612l15.217723-.8749-8.65119-5.11838c-.18456-.13214-.28972-.37139-.21034-.58361.07937-.21222.26292-.37139.50106-.37139.07838 0 .13098.02603.21035.05306l9.83792 4.03022-5.618-7.79614c-.1052-.15917-.132-.37139-.0526-.53056.0794-.18519.2639-.2913.4743-.2913.132 0 .2639.05306.3691.15917l11.1834 11.21673c.1577.1591.2371.3974.2371.6096s-.0794.4244-.2371.6096l-11.1834 11.2437c-.1052.1061-.2371.1592-.3691.1592z" fill="#191919"/></svg>

<svg width="32" height="32" viewBox="0 0 32 32" fill="none" xmlns="http://www.w3.org/2000/svg">
<path d="M12.2104 28C12.113 27.9977 12.0179 27.9695 11.9346 27.9184C11.8514 27.8673 11.7829 27.795 11.7361 27.7087C11.6567 27.5235 11.6567 27.3373 11.7887 27.1781L17.4067 19.4081L7.56878 23.4393C7.48941 23.4663 7.43681 23.4923 7.35843 23.4923C7.12029 23.4923 6.90995 23.3331 6.85737 23.1209C6.77799 22.9087 6.88315 22.6704 7.06771 22.5373L15.7189 17.419L0.501177 16.5441C0.184658 16.517 9.96542e-05 16.2788 9.96542e-05 16.0135C-0.00257225 15.8763 0.0485768 15.7436 0.142417 15.6442C0.236257 15.5448 0.365199 15.4869 0.501177 15.483L15.7189 14.6081L7.06771 9.48972C6.88315 9.35758 6.77799 9.11833 6.85737 8.90611C6.93674 8.69389 7.12029 8.53472 7.35843 8.53472C7.43681 8.53472 7.48941 8.56075 7.56878 8.58778L17.4067 12.618L11.7887 4.82186C11.6835 4.66269 11.6567 4.45047 11.7361 4.2913C11.8155 4.10611 12 4 12.2104 4C12.3424 4 12.4743 4.05306 12.5795 4.15917L23.7629 15.3759C23.9206 15.535 24 15.7733 24 15.9855C24 16.1977 23.9206 16.4099 23.7629 16.5951L12.5795 27.8388C12.4743 27.9449 12.3424 27.998 12.2104 27.998V28Z" fill="#191919"/>
</svg>
